src/assets/outline/ProfileDelete.svg

<svg width="24" height="24" viewBox="0 0 24 24"  xmlns="http://www.w3.org/2000/svg">
<path d="M15.5898 21.6598C15.3998 21.6598 15.2098 21.5898 15.0598 21.4398C14.7698 21.1498 14.7698 20.6698 15.0598 20.3798L17.8798 17.5598C18.1698 17.2698 18.6498 17.2698 18.9398 17.5598C19.2298 17.8498 19.2298 18.3298 18.9398 18.6198L16.1198 21.4398C15.9698 21.5898 15.7798 21.6598 15.5898 21.6598Z" />
<path d="M18.4098 21.6598C18.2198 21.6598 18.0298 21.5898 17.8798 21.4398L15.0598 18.6198C14.7698 18.3298 14.7698 17.8498 15.0598 17.5598C15.3498 17.2698 15.8298 17.2698 16.1198 17.5598L18.9398 20.3798C19.2298 20.6698 19.2298 21.1498 18.9398 21.4398C18.7898 21.5898 18.5998 21.6598 18.4098 21.6598Z" />
<path d="M12.1601 11.62C12.1301 11.62 12.1101 11.62 12.0801 11.62C12.0301 11.61 11.9601 11.61 11.9001 11.62C9.00006 11.53 6.81006 9.25 6.81006 6.44C6.81006 3.58 9.14006 1.25 12.0001 1.25C14.8601 1.25 17.1901 3.58 17.1901 6.44C17.1801 9.25 14.9801 11.53 12.1901 11.62C12.1801 11.62 12.1701 11.62 12.1601 11.62ZM12.0001 2.75C9.97006 2.75 8.31006 4.41 8.31006 6.44C8.31006 8.44 9.87006 10.05 11.8601 10.12C11.9201 10.11 12.0501 10.11 12.1801 10.12C14.1401 10.03 15.6801 8.42 15.6901 6.44C15.6901 4.41 14.0301 2.75 12.0001 2.75Z" />
<path d="M11.9999 22.5602C9.95992 22.5602 8.02992 22.0302 6.56992 21.0502C5.17992 20.1202 4.41992 18.8502 4.41992 17.4802C4.41992 16.1102 5.18992 14.8502 6.56992 13.9302C9.55992 11.9302 14.4199 11.9302 17.4099 13.9302C17.7499 14.1602 17.8499 14.6302 17.6199 14.9702C17.3899 15.3202 16.9199 15.4102 16.5799 15.1802C14.0899 13.5202 9.88992 13.5202 7.39992 15.1802C6.43992 15.8202 5.91992 16.6302 5.91992 17.4802C5.91992 18.3302 6.44992 19.1602 7.39992 19.8002C8.60992 20.6102 10.2399 21.0502 11.9899 21.0502C12.3999 21.0502 12.7399 21.3902 12.7399 21.8002C12.7399 22.2102 12.4099 22.5602 11.9999 22.5602Z" />
</svg>

<?xml version="1.0" encoding="UTF-8"?>
<svg width="24" height="24" viewBox="0 0 24 24" xmlns="http://www.w3.org/2000/svg">
 <path d="m15.59 21.66c-0.19 0-0.38-0.07-0.53-0.22-0.29-0.29-0.29-0.77 0-1.06l2.82-2.82c0.29-0.29 0.77-0.29 1.06 0s0.29 0.77 0 1.06l-2.82 2.82c-0.15 0.15-0.34 0.22-0.53 0.22z"/>
 <path d="m18.41 21.66c-0.19 0-0.38-0.07-0.53-0.22l-2.82-2.82c-0.29-0.29-0.29-0.77 0-1.06s0.77-0.29 1.06 0l2.82 2.82c0.29 0.29 0.29 0.77 0 1.06-0.15 0.15-0.34 0.22-0.53 0.22z"/>
 <path d="m12.16 11.62h-0.08c-0.05-0.01-0.12-0.01-0.18 0-2.9-0.09-5.09-2.37-5.09-5.18 0-2.86 2.33-5.19 5.19-5.19 2.86 0 5.19 2.33 5.19 5.19-0.01 2.81-2.21 5.09-5 5.18h-0.03zm-0.16-8.87c-2.03 0-3.69 1.66-3.69 3.69 0 2 1.56 3.61 3.55 3.68 0.06-0.01 0.19-0.01 0.32 0 1.96-0.09 3.5-1.7 3.51-3.68 0-2.03-1.66-3.69-3.69-3.69z"/>
 <path d="m12 22.56c-2.04 0-3.97-0.53-5.43-1.51-1.39-0.93-2.15-2.2-2.15-3.57s0.77-2.63 2.15-3.55c2.99-2 7.85-2 10.84 0 0.34 0.23 0.44 0.7 0.21 1.04-0.23 0.35-0.7 0.44-1.04 0.21-2.49-1.66-6.69-1.66-9.18 0-0.96 0.64-1.48 1.45-1.48 2.3s0.53 1.68 1.48 2.32c1.21 0.81 2.84 1.25 4.59 1.25 0.41 0 0.75 0.34 0.75 0.75s-0.33 0.76-0.74 0.76z"/>
</svg>
